packages/ffe-icons/icons/filled/md/water_ec.svg

<svg xmlns="http://www.w3.org/2000/svg" height="24" viewBox="0 -960 960 960" width="24"><path d="M479.929-100.001q-128.467 0-214.197-88.253-85.731-88.252-85.731-219.691 0-58.209 26.385-116.802 26.384-58.593 65.961-112.461 39.577-53.868 85.615-101.341 46.038-47.473 85.5-82.603 7.615-7.231 17.105-10.731 9.491-3.5 19.433-3.5t19.433 3.5q9.49 3.5 17.105 10.731 39.462 35.13 85.5 82.603 46.038 47.473 85.615 101.341 39.577 53.868 65.961 112.461 26.385 58.593 26.385 116.802 0 131.439-85.801 219.691-85.802 88.253-214.269 88.253Zm-29.928-306.153v150.153q0 11.538 11.23 14.385 11.231 2.846 16.923-6.462l118.173-198.199q5.825-9.261.517-18.415-5.307-9.154-15.607-9.154h-71.238v-150.153q0-11.538-11.23-14.385-11.231-2.846-16.923 6.462L363.673-433.723q-5.825 9.261-.517 18.415 5.307 9.154 15.607 9.154h71.238Z"/></svg>

<svg xmlns="http://www.w3.org/2000/svg" height="24" viewBox="0 -960 960 960" width="24"><path d="M479.93-100q-128.47 0-214.2-88.25Q180-276.51 180-407.94q0-58.21 26.39-116.81 26.38-58.59 65.96-112.46 39.57-53.87 85.61-101.34 46.04-47.47 85.5-82.6 7.62-7.23 17.11-10.73 9.49-3.5 19.43-3.5t19.43 3.5q9.49 3.5 17.11 10.73 39.46 35.13 85.5 82.6 46.04 47.47 85.61 101.34 39.58 53.87 65.96 112.46Q780-466.15 780-407.94q0 131.43-85.8 219.69Q608.4-100 479.93-100ZM450-406.15V-256q0 11.54 11.23 14.38 11.23 2.85 16.92-6.46l118.18-198.2q5.82-9.26.51-18.41-5.3-9.16-15.6-9.16H510V-624q0-11.54-11.23-14.38-11.23-2.85-16.92 6.46l-118.18 198.2q-5.82 9.26-.51 18.41 5.3 9.16 15.6 9.16H450Z"/></svg>
